X:172
T:Patchwork Quilt
C: Krumm, Pasquarello, Sandler, Wilkins       
R:reel
M:4/4
K:G
A2|"G"B2c2 "D"A2B2| "Em"G2>A2 "C"GFED| "G"B,2D2 GA B2|"D7"c2B2A2 GA|
"G"B2c2 "D"A2B2| "Em"G2>A2 "C"GFED| "G"B,2D2 GA B2|"D7"A2 F2 "G"G2:|
|:A2|"Em"B2>c2 BAGF| G2 F2 "C"E4|"D"F2G2 A4|"B7/D#"F2G2A2>c2|
"Em"B2>c2 BAGF|G2 A2 "D"F2 G2|"C"EFGB "D"A2 F2|"G" G6:|
